assets/icons/24px/outline/helmet-24px.svg

<svg width="24" height="24" viewBox="0 0 24 24" fill="none" xmlns="http://www.w3.org/2000/svg">
<path d="M13 15C13 15 9.32116 14.6223 7.5 14C5.04545 13.1613 3.5 12 3.5 12" stroke="white" stroke-width="2"/>
<path d="M20 14.0001C18.3677 14.852 15.356 15.0001 12.5 15.0001C10.8677 15.0001 7.94849 19.2779 5.50002 18C3.05154 16.7221 3.50003 16.4078 3.50003 13C3.50003 8.76535 6.54176 6 11.5 6C15.409 6 18.7949 8.79617 19.5 10.5001C20.2052 12.2039 21.6323 13.1481 20 14.0001Z" stroke="white" stroke-width="2"/>
</svg>

<svg width="24" height="24" fill="none" xmlns="http://www.w3.org/2000/svg"><path d="M13 15s-3.679-.378-5.5-1c-2.455-.839-4-2-4-2" stroke="#fff" stroke-width="2"/><path d="M20 14c-1.632.852-4.644 1-7.5 1-1.632 0-4.552 4.278-7 3-2.448-1.278-2-1.592-2-5 0-4.235 3.042-7 8-7 3.909 0 7.295 2.796 8 4.5.705 1.704 2.132 2.648.5 3.5z" stroke="#fff" stroke-width="2"/></svg>
